packages/ui-icons/svg/Solid/no.svg

<svg viewBox="0 0 1920 1920" version="1.1" xmlns="http://www.w3.org/2000/svg">
    <path d="M213.333333,960 C213.333333,792.64 269.333333,638.293333 362.773333,513.6 L1406.4,1557.22667 C1281.70667,1650.66667 1127.36,1706.66667 960,1706.66667 C548.373333,1706.66667 213.333333,1371.62667 213.333333,960 M1706.66667,960 C1706.66667,1127.36 1650.66667,1281.70667 1557.22667,1406.4 L513.6,362.773333 C638.293333,269.333333 792.64,213.333333 960,213.333333 C1371.62667,213.333333 1706.66667,548.373333 1706.66667,960 M960,0 C429.76,0 0,429.76 0,960 C0,1490.24 429.76,1920 960,1920 C1490.24,1920 1920,1490.24 1920,960 C1920,429.76 1490.24,0 960,0" stroke="none" stroke-width="1" fill-rule="evenodd"/>
</svg>

<svg viewBox="0 0 1920 1920" version="1.1" xmlns="http://www.w3.org/2000/svg">
    <path d="M213.333 960c0-167.36 56-321.707 149.44-446.4L1406.4 1557.227c-124.693 93.44-279.04 149.44-446.4 149.44-411.627 0-746.667-335.04-746.667-746.667m1493.334 0c0 167.36-56 321.707-149.44 446.4L513.6 362.773c124.693-93.44 279.04-149.44 446.4-149.44 411.627 0 746.667 335.04 746.667 746.667M960 0C429.76 0 0 429.76 0 960s429.76 960 960 960 960-429.76 960-960S1490.24 0 960 0" stroke="none" stroke-width="1" fill-rule="evenodd"/>
</svg>
